X:7
T:Strike home ye Britons. JJo8.007
%%VWML:JohnsonVol8-2184-p4-0
F:http://www.vwml.org/record/JohnsonVol8/2184/p4
Z:Transcribed by Simon Furey and Lewis Jones
Z:vmp.Simon Wilson 2013 www.village-music-project.org.uk
Z:Dance added by John Chambers 2017
M:C|
L:1/8
%Q:1/4=100
K:G
   g | egdg BG2g | egdg aA2g | egdg BGcA | dBec BG2 :|
|: d | BdAd BG2A | BcdB cA2d | BdAd BdGg | fedc BG2 :|
W: First and 2d Cu. set and Right
W:hands and Left half round .| the
W:same back again :| Cross over two
W:Cu. :|| Lead up to the top foot
W:it and cast off :||:
W:
T:Nanny's Choice. JJo8.008
B:J.Johnson Choice Collection Vol 8 1758
Z:vmp.Simon Wilson 2013 www.village-music-project.org.uk
Z:Dance added by John Chambers 2017
M:C|
L:1/8
%Q:1/2=80
K:A
c/d/ |\
eca2ecdf | ecBA{c}TB3D | CEAB cAdB | ecacTB3c/d/ |
eca2ecdf | ecBA{c}TB3D | CEAB cfed | c2TB2A3 :|
|: c |\
BEdB cAec | BEdB{c}Tc3A | BEdB cAec | (3agf (3edc{c}TB3c |
BEdB cAec | BEdB{c}c3A | BEdB cfed | c2TB2A3 :|
W: Half figure down on your own sides and foot it at
W:Bottom. half figure back again and foot it at top .|
W:Lead down one Cu. up aga cast off and foot it :|
W:Lead thro' Bottom and Top :|. Hands 4 round at
W:Bottom. Right Hands and Left at top :||:
W:
